images/icons/download-icon.svg

<svg width="22px" height="20px" viewBox="0 0 22 20" version="1.1" xmlns="http://www.w3.org/2000/svg" xmlns:xlink="http://www.w3.org/1999/xlink">
    <!-- Generator: Sketch 50.2 (55047) - http://www.bohemiancoding.com/sketch -->
    <desc>Created with Sketch.</desc>
    <defs></defs>
    <g id="Wireframes---Desktop" stroke="none" stroke-width="1" fill="none" fill-rule="evenodd" opacity="0.5">
        <g id="Dash---My-Files---Estate-Planning---Home-Management-(list---selected)" transform="translate(-1118.000000, -289.000000)" fill="#000000">
            <g id="Group-3" transform="translate(957.000000, 239.000000)">
                <g id="Page-1" transform="translate(161.000000, 50.000000)">
                    <path d="M2.51307692,19.7946146 L19.564359,19.7946146 C20.820359,19.7946146 21.846,18.7689744 21.846,17.538 L21.846,9.76953846 C21.846,9.56421026 21.6667128,9.38492308 21.4613846,9.38492308 C21.2560564,9.38492308 21.0767692,9.56421026 21.0767692,9.76953846 L21.0767692,17.5390256 C21.0767692,18.3593333 20.3846667,19.0264103 19.564359,19.0264103 L2.51307692,19.0254077 C1.66671795,19.0254077 1.00066667,18.3583308 1.00066667,17.5380231 L0.999666667,9.76956154 C0.999666667,9.56423333 0.820379487,9.38494615 0.61505,9.38494615 C0.409721795,9.38494615 0.230434615,9.56423333 0.230434615,9.76956154 L0.230434615,17.5390487 C0.230434615,18.7950487 1.25607692,19.7946641 2.51307692,19.7946641 L2.51307692,19.7946146 Z" id="Fill-1"></path>
                    <path d="M10.7953846,0.205384615 C10.5900564,0.205384615 10.4107692,0.384671795 10.4107692,0.59 L10.4107692,15.7182051 L6.41025641,12.2566667 C6.25601026,12.1284615 5.99958974,12.1284615 5.87138462,12.3077487 C5.74317949,12.4619949 5.74317949,12.7184154 5.92246667,12.8466205 L10.5888769,16.8471333 C10.6149179,16.8731744 10.666,16.8982154 10.691041,16.8982154 L10.7170821,16.8982154 C10.7431231,16.8982154 10.7942051,16.9242564 10.8452872,16.9242564 C10.8963692,16.9242564 10.9224103,16.9242564 10.9734923,16.8982154 L10.9995333,16.8982154 C11.0255744,16.8721744 11.0766564,16.8721744 11.1016974,16.8471333 L15.7681077,12.8466205 C15.9223538,12.7184154 15.9473949,12.4620051 15.8191897,12.3077487 C15.6909846,12.1534923 15.4345744,12.1284615 15.2803179,12.2566667 L11.1798051,15.6920513 L11.1798051,0.563846154 C11.1798051,0.358517949 11.025559,0.205282051 10.7951897,0.205282051 L10.7953846,0.205384615 Z" id="Fill-2"></path>
                </g>
            </g>
        </g>
    </g>
</svg>

<svg height="24" viewBox="0 0 24 24" width="24" xmlns="http://www.w3.org/2000/svg"><g fill-rule="evenodd" opacity=".5" transform="matrix(1.1019354 0 0 1.1019354 -.192981 .880529)"><path d="m2.5130769 19.794615h17.0512821c1.256 0 2.281641-1.025641 2.281641-2.256615v-7.7684615c0-.2053282-.179287-.3846154-.384615-.3846154-.205329 0-.384616.1792872-.384616.3846154v7.7694875c0 .820307-.692102 1.487384-1.51241 1.487384l-17.0512821-.001c-.846359 0-1.5124102-.667077-1.5124102-1.487385l-.001-7.7684615c0-.2053282-.17928718-.3846154-.38461667-.3846154-.20532821 0-.38461539.1792872-.38461539.3846154v7.7694875c0 1.256 1.02564226 2.255615 2.28264226 2.255615z"/><path d="m10.795385.20538461c-.205329 0-.384616.17928719-.384616.38461539v15.128205l-4.0005126-3.461538c-.1542461-.128205-.4106667-.128205-.5388718.05108-.1282051.154246-.1282051.410666.051082.538872l4.6664104 4.000512c.02604.02604.07712.05108.102164.05108h.02604c.02604 0 .07712.02604.128205.02604.05108 0 .07712 0 .128205-.02604h.02604c.02604-.02604.07712-.02604.102164-.05108l4.666411-4.000512c.154246-.128206.179287-.384616.05108-.538872-.128205-.154257-.384616-.179287-.538872-.05108l-4.100513 3.435384v-15.12820485c0-.2053282-.154246-.3585641-.384615-.3585641z"/></g></svg>
